X: 6
T: The Bundoran Highland
S: Danny O'Donnell, Donegal fiddler
M: 4/4
L: 1/8
R: highland schottische/fling
K: G Major 
B>A |:\ 
G2 G>A B<dd>B | c>AB>G A>G (3FED | 
G2 G>A B<d d2 |[1 (3efg f>a g>ed>B :|[2 (3efg (3fga g2 ||
g>d |\
g>ab>g a>g d2 | e>fg>d e>d B2 | 
g>ab>g a>gf>d | (3efg f>a g2 g>d |
g>ab>g a>gf>d | e>fg>e d>cB>A | 
G2 G>A B<d d2 | (3efg f>a g>ed>B |]
~ to finish ~ | (3efg f>a g>ed>B || G4 |]
